!!!!SEGMENT: pl-wtm--r-1552--004_stefani-jozef--missa-no-13-credo.krn
!!!cenid: 18xx:1815
!!!COM: Stefani, Józef
!!!COM-rismid: pe30024097
!!!CDT: 1800/04/16-1876/03/19
!!!CNT: Polish
!!!OPR: Missa No 13
!!!OTL: Credo
!!!OMV: 004
!!!PDT:
!!!AGN: Sacred; Mass
!!!SMS-siglum: PL-Wtm
!!!SMS-shelfmark: R 1552
!!!SMS-shelfwork: 001-004 M
!!!SMS-variant:
!!!SMS-altvar:
!!!NIFC-rismid: 1001115180
!!!URL-scan: http://repozytorium.nifc.pl/skany/pl-wtm-nut--r1552
!!!ONB-nifc: UWAGA: części Mszy: 1. Kyrie, 2. Gloria, 3. Graduale, 4. Credo, 5. Offertorium, 6. Sanctus, 7. Benedictus, 8. Agnus Dei
**kern	**kern	**dynam	**kern	**dynam	**kern	**dynam	**kern	**dynam	**kern	**dynam	**kern	**text	**kern	**text	**kern	**text	**kern	**text	**dynam
*part9	*part9	*part9	*part8	*part8	*part7	*part7	*part6	*part6	*part5	*part5	*part4	*part4	*part3	*part3	*part2	*part2	*part1	*part1	*part1
*staff10	*staff9	*	*staff8	*	*staff7	*	*staff6	*	*staff5	*	*staff4	*staff4	*staff3	*staff3	*staff2	*staff2	*staff1	*staff1	*
*Iorgan	*Iempty	*	*Icello	*	*Iviola	*	*Ivioln	*	*Ivioln	*	*Ibass	*	*Itenor	*	*Ialto	*	*Ivox	*	*
*I"Organo	*	*	*I"Cello	*	*I"Viola	*	*I"Violino II	*	*I"Violino I	*	*I"Basso	*	*I"Tenore	*	*I"Alto	*	*I"Canto	*	*
*I'Org.	*	*	*I'Vc.	*	*I'Va	*	*I'Vn II	*	*I'Vn I	*	*I'B.	*	*I'T.	*	*I'A.	*	*I'C.	*	*
*clefF4	*clefG2	*	*clefF4	*	*clefC3	*	*clefG2	*	*clefG2	*	*clefF4	*	*clefC4	*	*clefG2	*	*clefG2	*	*
*k[b-]	*k[b-]	*	*k[b-]	*	*k[b-]	*	*k[b-]	*	*k[b-]	*	*k[b-]	*	*k[b-]	*	*k[b-]	*	*k[b-]	*	*
*d:	*d:	*	*d:	*	*d:	*	*d:	*	*d:	*	*d:	*	*d:	*	*d:	*	*d:	*	*
*M4/4	*M4/4	*	*M4/4	*	*M4/4	*	*M4/4	*	*M4/4	*	*M4/4	*	*M4/4	*	*M4/4	*	*M4/4	*	*
*met(C)	*met(C)	*	*met(C)	*	*met(C)	*	*met(C)	*	*met(C)	*	*met(C)	*	*met(C)	*	*met(C)	*	*met(C)	*	*
*	*	*	*	*	*	*	*	*above	*	*	*	*	*	*	*	*	*	*	*
=1	=1	=1	=1	=1	=1	=1	=1	=1	=1	=1	=1	=1	=1	=1	=1	=1	=1	=1	=1
*	*^	*	*	*	*	*	*	*	*	*	*	*	*	*	*	*	*	*	*
!	!	!	!	!	!LO:DY:rj:a	!	!	!	!LO:DY:a	!	!	!	!	!	!	!	!	!LO:TX:a:t=All(egr)o mod(era)to	!	!
1B-\ 1BB-\	4dd/ 4d/	2ryy	.	4BB-/	f	4B-/	.	4d/	f	4dd\	.	1r	.	1r	.	1r	.	1r	.	.
.	8d/L	.	.	4r	.	4r	.	4r	.	8d/L	.	.	.	.	.	.	.	.	.	.
.	8e/J	.	.	.	.	.	.	.	.	8e/J	.	.	.	.	.	.	.	.	.	.
*	*	*2\right	*	*	*	*	*	*	*	*	*	*	*	*	*	*	*	*	*	*
.	4f/	2d\	.	2BB-/	.	2d/ 2B-^/	.	(>2d^/	.	4f/	.	.	.	.	.	.	.	.	.	.
.	4g/	.	.	.	.	.	.	.	.	4g/	.	.	.	.	.	.	.	.	.	.
=2	=2	=2	=2	=2	=2	=2	=2	=2	=2	=2	=2	=2	=2	=2	=2	=2	=2	=2	=2	=2
*2\right	*	*	*	*	*	*2\right	*	*	*	*	*	*	*	*	*	*	*	*	*	*
[>2A\ [>2AA\	[2a/ [2e/	4d\	.	2.AA;/	.	2.e\ 2.A;\	.	4d/	.	2.a;/	.	2r	.	2r	.	2r	.	2r	.	.
.	.	8c#X\L	.	.	.	.	.	8c#X/L	.	.	.	.	.	.	.	.	.	.	.	.
.	.	8Bn\J	.	.	.	.	.	8Bn/J	.	.	.	.	.	.	.	.	.	.	.	.
4A\] 4AA;\]	4a/] 4e/] 4c#;/	2ryy	.	.	.	.	.	4c#;/)	.	.	.	4r;	.	4r;	.	4r;	.	4r;	.	.
.	.	.	.	.	p	.	.	.	p	.	.	.	.	.	.	.	.	.	.	.
4AA/	4A/	.	.	4AA/	.	4r	.	4A/	.	4r	.	4AA/	Wie-	4r	.	4A/	.	4r	.	.
*	*v	*v	*	*	*	*	*	*	*	*	*	*	*	*	*	*	*	*	*	*
=3	=3	=3	=3	=3	=3	=3	=3	=3	=3	=3	=3	=3	=3	=3	=3	=3	=3	=3	=3
*	*	*	*	*	*	*	*	*	*	*	*2\right	*	*	*	*	*	*	*	*
8D\L	8d/L	.	8D/L	.	1r	.	8d/L	.	1r	.	2D\	-rze-	1r	.	2d/	.	1r	.	.
8C#X\	8c#X/	.	8C#X/	.	.	.	8c#X/	.	.	.	.	.	.	.	.	.	.	.	.
8D\	8d/	.	8D/	.	.	.	8d/	.	.	.	.	.	.	.	.	.	.	.	.
8E\J	8e/J	.	8E/J	.	.	.	8e/J	.	.	.	.	.	.	.	.	.	.	.	.
8F\L	8f/L	.	8F/L	.	.	.	8f/L	.	.	.	2F\	-my	.	.	2f/	.	.	.	.
8E\	8e/	.	8E/	.	.	.	8e/	.	.	.	.	.	.	.	.	.	.	.	.
8F\	8f/	.	8F/	.	.	.	8f/	.	.	.	.	.	.	.	.	.	.	.	.
8D\J	8d/J	.	8D/J	.	.	.	8d/J	.	.	.	.	.	.	.	.	.	.	.	.
=4	=4	=4	=4	=4	=4	=4	=4	=4	=4	=4	=4	=4	=4	=4	=4	=4	=4	=4	=4
8E\L	8e/L	.	8E/L	.	1r	.	8e/L	.	1r	.	2E\	w Bo-	1r	.	2e/	.	1r	.	.
8F\	8f/	.	8F/	.	.	.	8f/	.	.	.	.	.	.	.	.	.	.	.	.
8E\	8e/	.	8E/	.	.	.	8e/	.	.	.	.	.	.	.	.	.	.	.	.
8C#X\J	8c#X/J	.	8C#X/J	.	.	.	8c#X/J	.	.	.	.	.	.	.	.	.	.	.	.
8AA\L	8A/L	.	8AA/L	.	.	.	8A/L	.	.	.	4E\	-ga	.	.	4e/	.	.	.	.
8E\	8e/	.	8E/	.	.	.	8e/	.	.	.	.	.	.	.	.	.	.	.	.
8A\	8a/	.	8A/	.	.	.	8a/	.	.	.	4G\	ie-	.	.	4g/	.	.	.	.
8G\J	8g/J	.	8G/J	.	.	.	8g/J	.	.	.	.	.	.	.	.	.	.	.	.
=5	=5	=5	=5	=5	=5	=5	=5	=5	=5	=5	=5	=5	=5	=5	=5	=5	=5	=5	=5
8F\L	8f/L	.	8F/L	.	1r	.	8f/L	.	1r	.	2F\	-dne-	1r	.	2f/	.	1r	.	.
8G\	8g/	.	8G/	.	.	.	8g/	.	.	.	.	.	.	.	.	.	.	.	.
8F\	8f/	.	8F/	.	.	.	8f/	.	.	.	.	.	.	.	.	.	.	.	.
8D\J	8d/J	.	8D/J	.	.	.	8d/J	.	.	.	.	.	.	.	.	.	.	.	.
8E/L	8e/L	.	8E/L	.	.	.	8e/L	.	.	.	4E\	-go	.	.	4e/	.	.	.	.
8AA/	8A/	.	8AA/	.	.	.	8A/	.	.	.	.	.	.	.	.	.	.	.	.
8D/	8d/	.	8D/	.	.	.	8d/	.	.	.	4D\	na	.	.	4d/	.	.	.	.
8AA/J	8A/J	.	8AA/J	.	.	.	8A/J	.	.	.	.	.	.	.	.	.	.	.	.
!!LO:LB:g=original
=6	=6	=6	=6	=6	=6	=6	=6	=6	=6	=6	=6	=6	=6	=6	=6	=6	=6	=6	=6
8C#X/L	8c#X/L	.	8C#X/L	.	2r	.	8c#X/L	.	2r	.	2C#X/	wie-	2r	.	2c#X/	.	2r	.	.
8AA/	8A/	.	8AA/	.	.	.	8A/	.	.	.	.	.	.	.	.	.	.	.	.
8C#/	8c#/	.	8C#/	.	.	.	8c#/	.	.	.	.	.	.	.	.	.	.	.	.
8E/J	8e/J	.	8E/J	.	.	.	8e/J	.	.	.	.	.	.	.	.	.	.	.	.
4A\	4f/	.	4A\	.	4r	.	4a/	.	4r	.	4AA/	-ki	4r	.	4A/	.	4r	.	.
.	.	.	.	f	.	.	.	.	.	.	.	.	.	.	.	.	.	.	.
4A/ 4AA/	4a/ 4e/ 4c#/	.	4A\	.	4c#X\	.	4e/	f	4a/	.	4A\	.	4c#X\	.	4e/	.	4a/	Co	.
=7	=7	=7	=7	=7	=7	=7	=7	=7	=7	=7	=7	=7	=7	=7	=7	=7	=7	=7	=7
*	*	*	*2\right	*	*	*	*	*	*	*	*	*	*2\right	*	*	*	*	*	*
2G/ 2GG/	2a/ 2e/ 2c#X/	.	2G\	.	2c#X\	.	2e/	.	2b-/	.	2G\	.	2c#X\	.	2e/	.	2b-/	Ka-	.
2F/ 2FF/	2a/ 2d/	.	2F\	.	2d\	.	2f/	.	(>2a/	.	2F\	.	2d\	.	2f/	.	2a/	-rze	.
=8	=8	=8	=8	=8	=8	=8	=8	=8	=8	=8	=8	=8	=8	=8	=8	=8	=8	=8	=8
*^	*^	*	*	*	*	*	*	*	*	*	*	*	*	*	*	*	*	*	*
2.A/	2E\	4a/	2c#X\	.	2E\	.	2.A/	.	2e/	.	4a/	.	2E\	.	2A\	.	2e/	.	(>4a/	zbro-	.
.	.	4g/	.	.	.	.	.	.	.	.	4g/)	.	.	.	.	.	.	.	4g/)	.	.
.	4D\	4f/	4e\	.	4D\	.	.	.	4d/	.	4f/	.	4D\	.	4A\	.	4d/	.	4f/	-dnie	.
4G\	4GG\	4e/ 4d/	4B-\	.	4G\	.	4B-/	.	4d/	.	4e/	.	4G\	.	4B-X\	.	4d/	.	4e/	a	.
*v	*v	*	*	*	*	*	*	*	*	*	*	*	*	*	*	*	*	*	*	*	*
=9	=9	=9	=9	=9	=9	=9	=9	=9	=9	=9	=9	=9	=9	=9	=9	=9	=9	=9	=9	=9
2.A\ 2.AA\	2f#X/	2.d\	.	2A\	.	2.A/	.	2.d/	.	2f#X/	.	2A\	.	2A\	.	2d/	.	2f#X/	cno-	.
.	4e/	.	.	4AA/	.	.	.	.	.	4e/	.	4AA/	.	4A\	.	4d/	.	4e/	-ty	.
4A\ 4AA\	4a/ 4c#X/	4ryy	.	4AA/	.	4A/	.	4c#X/	.	4a/	.	4AA/	.	4A\	.	4c#X/	.	4a/	na-	.
*	*v	*v	*	*	*	*	*	*	*	*	*	*	*	*	*	*	*	*	*	*
=10	=10	=10	=10	=10	=10	=10	=10	=10	=10	=10	=10	=10	=10	=10	=10	=10	=10	=10	=10
2.A\ 2.D\	2.f#X/ 2.d/	.	8D\L	.	8A/L	.	8d/L	.	8f#X/L	.	2D\	.	2A\	.	2d/	.	2f#X/	-gra-	.
.	.	.	8d\	.	8F#X/	.	8A/	.	8d/	.	.	.	.	.	.	.	.	.	.
.	.	.	8A\	.	8A/	.	8d/	.	8f#/	.	.	.	.	.	.	.	.	.	.
.	.	.	8F#X\J	.	8d/J	.	8f#X/J	.	8a/J	.	.	.	.	.	.	.	.	.	.
.	.	.	4D\	.	4f#X\	.	4d/	.	4dd\	.	4D\	.	4A\	.	4d/	.	4f#/	-dza	.
4d\ 4D\	4r	.	(4d\	.	4r	.	4r	.	4r	.	4d\	Swiat	4r	.	4r	.	4r	.	.
=11	=11	=11	=11	=11	=11	=11	=11	=11	=11	=11	=11	=11	=11	=11	=11	=11	=11	=11	=11
2c#X\ 2C#X\	2r	.	2c#X\)	.	2r	.	1r	.	1r	.	2c#X\	ca-	2r	.	1r	.	1r	.	.
2Bn\ 2BBn\	4r	.	4Bn\	.	4r	.	.	.	.	.	4Bn\	-ły	4r	.	.	.	.	.	.
.	4dd/ 4d/	.	(4B\	.	(4d\	.	.	.	.	.	(4B\	z Je-	(4d\	z Je-	.	.	.	.	.
!!LO:PB:g=original
=12	=12	=12	=12	=12	=12	=12	=12	=12	=12	=12	=12	=12	=12	=12	=12	=12	=12	=12	=12
2A\ 2AA\	2cc#X/ 2c#X/	.	(2A\)	.	(2c#X/)	.	2r	.	2r	.	2A\)	.	2c#X\)	.	2r	.	2r	.	.
4G/ 4GG/	4bn/ 4Bn/	.	4G\)	.	4Bn/)	.	4r	.	4r	.	4G\	-go	4Bn\	-go	4r	.	4r	.	.
4Bn\ 4G\	4dd/ 4g/ 4d/	.	4G'\	.	4B/	.	4d/	.	4dd\	p	4G\	Is-	4B\	I-	4d/	.	4dd\	I-	.
=13	=13	=13	=13	=13	=13	=13	=13	=13	=13	=13	=13	=13	=13	=13	=13	=13	=13	=13	=13
*^	*	*	*	*	*	*	*	*	*	*	*	*	*	*	*	*	*	*	*
[2A/	2F\	2dd/ 2a/ 2d/	.	(4.F\	.	2A/	.	(4.d/	.	(4.dd\	.	(4.F\	-tnie-	2A\	-stnie-	(4.d/	.	(4.dd\	-stnie-	.
.	.	.	.	16G\LL	.	.	.	16c#X/LL	.	16ee\LL	.	16G\LL	.	.	.	16c/LL	.	16ee\LL	.	.
.	.	.	.	16F\JJ	.	.	.	16d/JJ	.	16dd\JJ	.	16F\JJ)	.	.	.	16d/JJ	.	16dd\JJ	.	.
2A/]	4E\	4cc#X/ 4a/ 4g/ 4e/	.	4E\	.	4A/	.	4g/	.	4cc\	.	4E\	-ie	4A\	-ie	4g/	.	4cc#X\	-ie	.
.	4D\	4dd/ 4a/ 4f/ 4d/	.	4D\)	.	4A/	.	4f/)	.	4dd\)	.	4D\	o-	4A\	o-	4f/)	.	4dd\)	o-	.
*v	*v	*	*	*	*	*	*	*	*	*	*	*	*	*	*	*	*	*	*	*
=14	=14	=14	=14	=14	=14	=14	=14	=14	=14	=14	=14	=14	=14	=14	=14	=14	=14	=14	=14
*	*	*	*	*	*	*	*	*	*2\right	*	*	*	*	*	*	*	*2\right	*	*
2.A\ 2.C#X\	2ee/ 2a/ 2g/	.	2C#X/	.	2A/	.	2g/	.	2ee\	.	2C#X/	-pie-	2A\	-pie-	2g/	.	2ee\	-pie-	.
.	4a/ 4g/	.	4C#/	.	4A/	.	4g/	.	4a/	.	4D/	-ki	4A\	-ki	4g/	.	4a/	-ki	.
4A/ 4AA/	4a/	.	4AA/	.	4A/	.	4a/	.	4a/	.	4AA/	.	4A\	.	4a/	.	4a/	w mi-	.
=15	=15	=15	=15	=15	=15	=15	=15	=15	=15	=15	=15	=15	=15	=15	=15	=15	=15	=15	=15
*	*^	*	*	*	*	*	*	*	*	*	*	*	*	*	*	*	*	*	*
2G\	2cc#X/ 2e/	1a\	.	2G^\	.	2e\	.	2a^>/	.	2cc#X\	.	2G\	.	2e\	.	2a/	.	2cc#X\	-ło-	.
2F#\	2dd/ 2f#/ 2d/	.	.	2F^\	.	2d\	.	2a^>/	.	2dd\	.	2F\	.	2d\	.	2a/	.	2dd\	-ści	.
*	*v	*v	*	*	*	*	*	*	*	*	*	*	*	*	*	*	*	*	*	*
=16	=16	=16	=16	=16	=16	=16	=16	=16	=16	=16	=16	=16	=16	=16	=16	=16	=16	=16	=16
2.d\ 2.B-\ 2.G\	2ee/ 2e/	.	2G\	.	2B-/	.	2d/	.	4.ee\	.	2G\	.	2B-\	.	2d/	.	(4.ee\	Je-	.
.	.	.	.	.	.	.	.	.	8e/	.	.	.	.	.	.	.	8e/)	.	.
.	4e/	.	4G\	.	4B-/	.	4d/	.	4e/	.	4G\	.	4B-\	.	4d/	.	4e/	-go	.
4d\ 4B-\ 4G#X\	4f#X/	.	4G#X\	.	4Bn/	.	4d/	.	4e#X/	.	4G#\	.	4Bn\	.	4d/	.	4e/	i	.
=17	=17	=17	=17	=17	=17	=17	=17	=17	=17	=17	=17	=17	=17	=17	=17	=17	=17	=17	=17
!	!	!	!	!	!	!LO:HP:b	!	!	!	!LO:HP:b	!	!	!	!	!	!	!	!	!
2.A\	4f#X/ 4d/	.	4A\	.	4A/	<	4d/	.	4f#X/	<	2.A\	.	(4A\	.	(4d/	.	(4f#X/	mą-	.
.	2a/ 2f#/ 2d/	.	2A\	.	2d\	.	2f#X/	.	2a/	.	.	.	2d\)	.	2f#X/)	.	2a/)	.	.
8F#X\L	8dd/L 8a/ 8d/	.	8F#X\L	.	8d\L	.	8a/L	.	8dd\L	.	8F#X\	.	8d\	.	8a/	.	8dd\	-drość	.
8D\J	8ff#X/J 8dd/ 8a/	.	8D\J	.	8d\J	[[	8a/J	.	8ff#X\J	[[	8D\	.	8d\	.	8a/	.	8ff#X\	i	.
!!LO:LB:g=original
=18	=18	=18	=18	=18	=18	=18	=18	=18	=18	=18	=18	=18	=18	=18	=18	=18	=18	=18	=18
*^	*	*	*	*	*	*	*	*	*	*	*	*	*	*	*	*	*	*	*
!	!	!	!	!	!	!	!LO:DY:rj:b	!	!	!	!LO:DY:rj	!	!	!	!	!	!	!	!	!LO:DY:rj
4f#X/ 4d/	1A\	2.aa\ 2.a\	.	2AA/	.	(4d\	f	(4f#X/	.	2.aa\	f	1AA/	.	4d\	.	(4f#X/	.	(2.aa\	wła-	f
8e/L 8c#X/	.	.	.	.	.	8c#X\L	.	8e/L	.	.	.	.	.	(8c#X\L	.	8e/L	.	.	.	.
8f#/J 8d/	.	.	.	.	.	8d\J	.	8f#/J	.	.	.	.	.	8d\J	.	8f#/J	.	.	.	.
2g/ 2e/	.	.	.	4A\	.	4e\	.	4g/)	.	.	.	.	.	4e\	.	4g/)	.	.	.	.
.	.	4cc#X/ 4a/	.	4AA/	.	4g\)	.	4e/	.	4cc#X\	.	.	.	4c#\	.	4e/	.	4cc#X\	.	.
*v	*v	*	*	*	*	*	*	*	*	*	*	*	*	*	*	*	*	*	*	*
=19	=19	=19	=19	=19	=19	=19	=19	=19	=19	=19	=19	=19	=19	=19	=19	=19	=19	=19	=19
4f#X\ 4d\	4dd/ 4a/	.	4D\	.	4f#X\	.	4d/	.	4dd\	.	4D\	.	4d\)	.	4f#X/	.	4dd\)	-dza	.
!	!	!	!	!	!	!	!LO:TX:a:t=unis	!	!	!	!	!	!	!	!	!	!	!	!
8d\L	8dd\L	.	8d\L	.	8d\L	.	8dd\Lyy	.	8dd\L	.	4r	.	4r	.	4r	.	4r	.	.
8e-X\J	8ee-X\J	.	8e-X\J	.	8e-X\J	.	8ee-X\Jyy	.	8ee-X\J	.	.	.	.	.	.	.	.	.	.
8d\L	8dd\L	.	8d\L	.	8d\L	.	8dd\Lyy	.	8dd\L	.	4r	.	4r	.	4r	.	4r	.	.
8c\	8cc\	.	8c\	.	8c\	.	8cc\yy	.	8cc\	.	.	.	.	.	.	.	.	.	.
8A\	8a\	.	8A\	.	8A\	.	8a\yy	.	8a\	.	4D\	.	4D/	.	4d/	.	4d/	Że	.
8B-X\J	8b-X\J	.	8B-X\J	.	8B-X\J	.	8b-\Jyy	.	8b-X\J	.	.	.	.	.	.	.	.	.	.
=20	=20	=20	=20	=20	=20	=20	=20	=20	=20	=20	=20	=20	=20	=20	=20	=20	=20	=20	=20
8G\L	8g/L	.	8G\L	.	8G/L	.	8g/Lyy	.	8g/L	.	2G\	.	2G/	.	2g/	.	2g/	nie-	.
8F#X\	8f#X/	.	8F#X\	.	8F#X/	.	8f#X/yy	.	8f#X/	.	.	.	.	.	.	.	.	.	.
8G\	8g/	.	8G\	.	8G/	.	8g/yy	.	8g/	.	.	.	.	.	.	.	.	.	.
8A\J	8a/J	.	8A\J	.	8A/J	.	8a/Jyy	.	8a/J	.	.	.	.	.	.	.	.	.	.
8B-X\L	8b-X/L	.	8B-X\L	.	8B-X/L	.	8b-X/Lyy	.	8b-X/L	.	2B-X\	.	2B-X/	.	2b-X/	.	2b-X/	-śmier-	.
8A\	8a/	.	8A\	.	8A/	.	8a/yy	.	8a/	.	.	.	.	.	.	.	.	.	.
8B-\	8b-/	.	8B-\	.	8B-/	.	8b-/yy	.	8b-/	.	.	.	.	.	.	.	.	.	.
8G\J	8g/J	.	8G\J	.	8G/J	.	8g/Jyy	.	8g/J	.	.	.	.	.	.	.	.	.	.
=21	=21	=21	=21	=21	=21	=21	=21	=21	=21	=21	=21	=21	=21	=21	=21	=21	=21	=21	=21
8A\L	8a/L	.	8A\L	.	8A/L	.	8a/Lyy	.	8a/L	.	2A\	.	2A\	.	2a/	.	2a/	-tel-	.
8B-X\	8b-X/	.	8B-X\	.	8B-X/	.	8b-/yy	.	8b-X/	.	.	.	.	.	.	.	.	.	.
8A\	8a/	.	8A\	.	8A/	.	8a/yy	.	8a/	.	.	.	.	.	.	.	.	.	.
8F#X\J	8f#X/J	.	8F#X\J	.	8F#X/J	.	8f#X/Jyy	.	8f#X/J	.	.	.	.	.	.	.	.	.	.
8D\L	8d/L	.	8D\L	.	8D/L	.	8d/Lyy	.	8d/L	.	4A\	.	4A\	.	4a/	.	4a/	-ność	.
8A\	8a/	.	8A\	.	8A/	.	8a/yy	.	8a/	.	.	.	.	.	.	.	.	.	.
8d\	8dd/	.	8d\	.	8d/	.	8dd/yy	.	8dd/	.	4c\	.	4c\	.	4cc\	.	4cc\	u	.
8c\J	8cc/J	.	8c\J	.	8c/J	.	8cc/Jyy	.	8cc/J	.	.	.	.	.	.	.	.	.	.
!!LO:LB:g=original
=22	=22	=22	=22	=22	=22	=22	=22	=22	=22	=22	=22	=22	=22	=22	=22	=22	=22	=22	=22
8B-\L	8b-/L	.	8B-\L	.	8B-/L	.	8b-/Lyy	.	8b-/L	.	2B-\	.	2B-\	.	2b-/	.	2b-/	Bo-	.
8c\	8cc/	.	8c\	.	8c/	.	8cc/yy	.	8cc/	.	.	.	.	.	.	.	.	.	.
8B-\	8b-/	.	8B-\	.	8B-/	.	8b-/yy	.	8b-/	.	.	.	.	.	.	.	.	.	.
8G\J	8g/J	.	8G\J	.	8G/J	.	8g/Jyy	.	8g/J	.	.	.	.	.	.	.	.	.	.
8A\L	8a/L	.	8A\L	.	8A/L	.	8a/Lyy	.	8a/L	.	4A\	.	4A/	.	4a/	.	4a/	-ga	.
8D\	8d/	.	8D\	.	8D/	.	8d/yy	.	8d/	.	.	.	.	.	.	.	.	.	.
8G\	8g/	.	8G\	.	8G/	.	8g/yy	.	8g/	.	4G\	.	4G/	.	4g/	.	4g/	nas	.
8D\J	8d/J	.	8D\J	.	8D/J	.	8d/Jyy	.	8d/J	.	.	.	.	.	.	.	.	.	.
=23	=23	=23	=23	=23	=23	=23	=23	=23	=23	=23	=23	=23	=23	=23	=23	=23	=23	=23	=23
8F#X\L	8f#X/L	.	8F#X\L	.	8F#X/L	.	8f#X/Lyy	.	8f#X/L	.	2F#X\	.	2F#X/	.	2f#X/	.	2f#X/	cze-	.
8D\	8d/	.	8D\	.	8D/	.	8d/yy	.	8d/	.	.	.	.	.	.	.	.	.	.
8F#\	8f#/	.	8F#\	.	8F#/	.	8f#/yy	.	8f#/	.	.	.	.	.	.	.	.	.	.
8A\J	8a/J	.	8A\J	.	8A/J	.	8a/Jyy	.	8a/J	.	.	.	.	.	.	.	.	.	.
4d\	4dd\	.	4d\	.	4d\	.	4dd\yy	.	4dd\	.	4D\	.	4d\	.	4d/	.	4d/	-ka	.
4d\ 4D\	4dd/ 4a/ 4f#/	.	4D\	.	4f#X\	.	4a/	.	4dd\	.	4d\	.	4f#X\	.	4a/	.	4dd\	dla	.
=24	=24	=24	=24	=24	=24	=24	=24	=24	=24	=24	=24	=24	=24	=24	=24	=24	=24	=24	=24
2c\ 2C\	2ee/ 2a/ 2f#X/	.	2C/	.	2f#X\	.	2a/	.	2ee-X\	.	2c\	.	2f#X\	.	2a/	.	2ee-X\	któ-	.
2B-\ 2BB-\	2dd/ 2g/	.	2BB-/	.	2g\	.	2g/	.	(2dd\	.	2B-\	.	2g\	.	2g/	.	[2dd\	-rej	.
=25	=25	=25	=25	=25	=25	=25	=25	=25	=25	=25	=25	=25	=25	=25	=25	=25	=25	=25	=25
*	*^	*	*	*	*	*	*	*	*	*	*	*	*	*	*	*	*	*	*
*	*	*^	*	*	*	*	*	*	*	*	*	*	*	*	*	*	*	*	*	*
2A\ 2AA\	4dd/	2ryy	2f#X\ [2d\	.	(4AA/	.	2.d\	.	2f#X/	.	4dd\	.	2A\	.	2d\	.	2f#X/	.	(4dd\]	czy-	.
.	4cc/	.	.	.	4A\	.	.	.	.	.	4cc\)	.	.	.	.	.	.	.	4cc\)	.	.
4G\ 4GG\	4b-/	2g/	4d\]	.	4G\)	.	.	.	4g/	.	4b-\	.	4G\	.	4d\	.	4g/	.	4b-\	-niem	.
4E-X/ 4EE-X/	4cc/	.	4c\	.	4E-X\	.	4c\	.	4g/	.	4cc\	.	4E-X\	.	4c\	.	4g/	.	4cc\	na	.
=26	=26	=26	=26	=26	=26	=26	=26	=26	=26	=26	=26	=26	=26	=26	=26	=26	=26	=26	=26	=26	=26
1F/ 1FF/	4fn/	4ryy	2d\	.	2Fn\	.	(2d\	.	(2fn/	.	4fn/	.	2Fn\	.	2d\	.	2fn/	.	(>4fn/	zie-	.
.	2b-X/	4f\	.	.	.	.	.	.	.	.	2b-/	.	.	.	.	.	.	.	4b-/)	.	.
.	.	2ryy	2e-X\ 2c\	.	4FF/	.	4c\)	.	4e-X/)	.	.	.	4F\	.	4c\	.	4e-X/	.	4b-/	-mi	.
.	4a/	.	.	.	4F\	.	4c\	.	4e-/	.	4a/	.	4F\	.	4c\	.	4e-/	.	4a/	o-	.
*	*v	*v	*v	*	*	*	*	*	*	*	*	*	*	*	*	*	*	*	*	*	*
!!LO:LB:g=original
=27	=27	=27	=27	=27	=27	=27	=27	=27	=27	=27	=27	=27	=27	=27	=27	=27	=27	=27	=27
2.F\ 2.BB-\	2.b-/ 2.d/	.	2BB-/	.	2B-X/	.	2d/	.	2b-\	.	2BB-X/	.	2B-X\	.	2d/	.	2b-\	-fia-	.
.	.	.	4B-\	.	4B-/	.	4d/	.	4b-\	.	4BB-/	.	4B-\	.	4d/	.	4b-\	-ry	.
4F\ 4BB-\	4b-/ 4f/ 4d/	.	4BB-/	.	4d\	.	4fn/	.	4b-\	.	4BB-/	.	4d\	.	4f/	.	4b-\	Że	.
=28	=28	=28	=28	=28	=28	=28	=28	=28	=28	=28	=28	=28	=28	=28	=28	=28	=28	=28	=28
2A\ 2AA\	2cc/ 2f/ 2c/	.	2AA/	.	2c^<\	.	2f/	.	2cc^\	.	2AA^>/	.	2c\	.	2f/	.	2cc^\	Sy-	.
2F/ 2FF/	2f/ 2c/ 2A/	.	2F\	.	2A^</	.	2c/	.	2f^/	.	2F^>\	.	2A\	.	2c/	.	2fn^>/	-na	.
=29	=29	=29	=29	=29	=29	=29	=29	=29	=29	=29	=29	=29	=29	=29	=29	=29	=29	=29	=29
4.B-\ 4.D\	4.b-/ 4.f/ 4.d/	.	(4.D\	.	(<4.B-/	.	(<4.d/	.	(4.b-\	.	(4.D\	.	4.B-\	.	(4.d/	.	(4.b-\	swe-	.
8c\ 8F\	8cc/ 8f/	.	8F\	.	8c/	.	8f/	.	8cc\	.	8F\)	.	8c\	.	8f/)	.	8cc\)	.	.
4d\ 4B-\	4dd\ 4b-\	.	4B-\)	.	4d\)	.	4b-\)	.	4dd\)	.	4B-\	.	4d\	.	4b-\	.	4dd\	-go	.
4f\ 4d\	4ff\ 4dd\	.	4d\	.	4f\	.	4dd\	.	4ff\	.	4d\	.	4f\	.	4dd\	.	4ff\	chciał	.
=30	=30	=30	=30	=30	=30	=30	=30	=30	=30	=30	=30	=30	=30	=30	=30	=30	=30	=30	=30
4.f\ 4.d\	(4.ff\ 4.dd\	.	(4.d\	.	(4.f\	.	(4.dd\	.	(4.ff\	.	(4.d\	.	(4.f\	.	(4.dd\	.	(4.ff\	wcie-	.
16g\LL 16e-X\	16gg\LL 16ee-X\	.	16e-X\LL	.	16g\LL	.	16ee-X\LL	.	16gg\LL	.	16e-X\LL	.	16g\LL	.	16ee-X\LL	.	16gg\LL	.	.
16f\JJ 16d\	16ff\JJ 16dd\	.	16d\JJ	.	16f\JJ	.	16dd\JJ	.	16ff\JJ	.	16d\JJ)	.	16f\JJ	.	16dd\JJ)	.	16ff\JJ)	.	.
4e-\ 4c\	4ee-X\ 4cc\)	.	4c\)	.	4e-X\)	.	4cc\)	.	4ee-X\)	.	4c\	.	4e-X\)	.	4cc\	.	4ee-X\	-lić	.
4d\ 4B-\	4dd\ 4b-\	.	4B-\	.	4d\	.	4b-\	.	4dd\	.	4B-\	.	4d\	.	4b-\	.	4dd\	w czło-	.
=31	=31	=31	=31	=31	=31	=31	=31	=31	=31	=31	=31	=31	=31	=31	=31	=31	=31	=31	=31
*^	*	*	*	*	*	*	*	*	*	*	*	*	*	*	*	*	*	*	*
*	*	*	*	*	*	*	*	*2\right	*	*	*	*	*	*	*	*2\right	*	*	*	*
2d/	4B-\	2dd\ 2b-\	.	4B-\	.	2d\	.	2b-\	.	2dd\	.	4B-\	.	2d\	.	2b-\	.	2dd\	-wie-	.
.	4En\	.	.	4En\	.	.	.	.	.	.	.	4En\	.	.	.	.	.	.	.	.
2c/	2F\	2cc\ 2a\	.	4F\	.	4c\	.	4a/	.	4cc\	.	4F\	.	4c\	.	4a/	.	4cc\	-ka	.
.	.	.	.	4F\	.	4f\	.	4a/	.	4cc\	.	4G\	.	4f\	.	4a/	.	4cc\	co	.
*v	*v	*	*	*	*	*	*	*	*	*	*	*	*	*	*	*	*	*	*	*
=32	=32	=32	=32	=32	=32	=32	=32	=32	=32	=32	=32	=32	=32	=32	=32	=32	=32	=32	=32
*	*^	*	*	*	*	*	*	*	*	*	*	*	*	*	*	*	*	*	*
*	*	*	*	*tremolo	*	*tremolo	*	*tremolo	*	*tremolo	*	*	*	*	*	*	*	*	*	*
!	!	!	!	!	!	!	!LO:DY:rj:b	!	!	!	!	!	!	!	!	!	!	!	!	!
1d\ 1A\ 1F#X\	2dd/	1a\	.	8F#X\L	.	8d\L	f	8g/L	.	8dd\L	.	2F#X\	.	2d\	.	2a/	.	2dd\	nas	.
.	.	.	.	8F#\	.	8d\	.	8g/	.	8dd\	.	.	.	.	.	.	.	.	.	.
.	.	.	.	8F#\	.	8d\	.	8g/	.	8dd\	.	.	.	.	.	.	.	.	.	.
.	.	.	.	8F#\J	.	8d\	.	8g/	.	8dd\J	.	.	.	.	.	.	.	.	.	.
.	2cc/	.	.	8F#\L	.	8d\	.	8g/	.	8cc\L	.	2F#\	.	2d\	.	2a/	.	2cc\	na	.
.	.	.	.	8F#\	.	8d\	.	8g/	.	8cc\	.	.	.	.	.	.	.	.	.	.
.	.	.	.	8F#\	.	8d\	.	8g/	.	8cc\	.	.	.	.	.	.	.	.	.	.
.	.	.	.	8F#\J	.	8d\J	.	8g/J	.	8cc\J	.	.	.	.	.	.	.	.	.	.
*	*v	*v	*	*	*	*	*	*	*	*	*	*	*	*	*	*	*	*	*	*
!!LO:PB:g=original
=33	=33	=33	=33	=33	=33	=33	=33	=33	=33	=33	=33	=33	=33	=33	=33	=33	=33	=33	=33
*^	*	*	*	*	*	*	*	*	*	*	*	*	*	*	*	*	*	*	*
1d/	2B-\ 2G\	2b-/ 2g/	.	8G\L	.	8d\L	.	8g/L	.	8b-\L	.	2G\	.	2d\	.	2g/	.	2b-/	u-	.
.	.	.	.	8G\	.	8d\	.	8g/	.	8b-\	.	.	.	.	.	.	.	.	.	.
.	.	.	.	8G\	.	8d\	.	8g/	.	8b-\	.	.	.	.	.	.	.	.	.	.
.	.	.	.	8G\J	.	8d\	.	8g/J	.	8b-\J	.	.	.	.	.	.	.	.	.	.
.	2A\	2a/ 2f/	.	8A\L	.	8d\	.	8f/L	.	8a/L	.	4A\	.	4d\	.	4f/	.	4a/	-czył	.
.	.	.	.	8A\	.	8d\	.	8f/	.	8a/	.	.	.	.	.	.	.	.	.	.
.	.	.	.	8A\	.	8d\	.	8f/	.	8a/	.	4A\	.	4d\	.	4f/	.	4a/	mi-	.
.	.	.	.	8A\J	.	8d\J	.	8f/J	.	8a/J	.	.	.	.	.	.	.	.	.	.
*v	*v	*	*	*	*	*	*	*	*	*	*	*	*	*	*	*	*	*	*	*
=34	=34	=34	=34	=34	=34	=34	=34	=34	=34	=34	=34	=34	=34	=34	=34	=34	=34	=34	=34
*	*^	*	*	*	*	*	*	*	*	*	*	*	*	*	*	*	*	*	*
1d\ 1B-\	4g#X/	2.f\	.	8B-X\L	.	8d\L	.	8f/L	.	8g#X/L	.	2B-X\	.	2d\	.	2f/	.	(4g#X/	-ło-	.
.	.	.	.	8B-\	.	8d\	.	8f/	.	8g#/J	.	.	.	.	.	.	.	.	.	.
.	2dd/	.	.	8B-\	.	8d\	.	8f/	.	8dd\L	.	.	.	.	.	.	.	4dd\)	.	.
.	.	.	.	8B-\J	.	8d\	.	8f/	.	8dd\	.	.	.	.	.	.	.	.	.	.
.	.	.	.	8BB-X/L	.	8d\	.	8f/	.	8dd\	.	4BB-X/	.	4d\	.	4f/	.	4dd\	-ści	.
.	.	.	.	8BB-/J	.	8d\	.	8f/J	.	8dd\J	.	.	.	.	.	.	.	.	.	.
.	4g#/ 4e\	4ryy	.	8B-X\L	.	8d\	.	8e/L	.	8g#/L	.	4B-\	.	4d\	.	4e/	.	4g#/	i	.
.	.	.	.	8B-\J	.	(8d\J	.	8e/J	.	8g#/J	.	.	.	.	.	.	.	.	.	.
*	*	*	*	*Xtremolo	*	*Xtremolo	*	*Xtremolo	*	*Xtremolo	*	*	*	*	*	*	*	*	*	*
*	*v	*v	*	*	*	*	*	*	*	*	*	*	*	*	*	*	*	*	*	*
=35	=35	=35	=35	=35	=35	=35	=35	=35	=35	=35	=35	=35	=35	=35	=35	=35	=35	=35	=35
*^	*	*	*	*	*	*	*	*	*	*	*	*	*	*	*	*	*	*	*
4d/	2A\	[2a/ [2e/	.	2A\	.	4d\	.	2e/	.	2a/	.	2A\	.	4d\	.	2e/	.	2a/	wia-	.
8c#X/L	.	.	.	.	.	8c#X\L	.	.	.	.	.	.	.	8c#X\L	.	.	.	.	.	.
8Bn/J	.	.	.	.	.	8Bn\J	.	.	.	.	.	.	.	8Bn\J	.	.	.	.	.	.
4c#;/	4A;\	4a/] 4e;/]	.	4AA;/	.	4c#;\)	.	4e;/	.	4a;/	.	4A;\	.	4c#;\	.	4e;/	.	4a;/	-ry	.
!	!	!	!	!	!LO:DY:a	!	!	!	!	!	!	!	!	!	!	!	!	!	!	!
.	.	.	.	.	p	.	.	.	.	.	.	.	.	.	.	.	.	.	.	.
4AA/	4ryy	4A/	.	4AA/	.	4r	.	4A/	p	4r	.	4AA/	Ten	4r	.	4A/	Ten	4r	.	.
*v	*v	*	*	*	*	*	*	*	*	*	*	*	*	*	*	*	*	*	*	*
=36	=36	=36	=36	=36	=36	=36	=36	=36	=36	=36	=36	=36	=36	=36	=36	=36	=36	=36	=36
8D\L	8d/L	.	8D/L	.	1r	.	8d/L	.	1r	.	2D\	śmier-	1r	.	2d/	śmier-	1r	.	.
8C#X\	8c#X/	.	8C#X/	.	.	.	8c#X/	.	.	.	.	.	.	.	.	.	.	.	.
8D\	8d/	.	8D/	.	.	.	8d/	.	.	.	.	.	.	.	.	.	.	.	.
8E\J	8e/J	.	8E/J	.	.	.	8e/J	.	.	.	.	.	.	.	.	.	.	.	.
8F\L	8f/L	.	8F\L	.	.	.	8f/L	.	.	.	2F\	-cią	.	.	2f/	-cią	.	.	.
8E\	8e/	.	8E\	.	.	.	8e/	.	.	.	.	.	.	.	.	.	.	.	.
8F\	8f/	.	8F\	.	.	.	8f/	.	.	.	.	.	.	.	.	.	.	.	.
8D\J	8d/J	.	8D\J	.	.	.	8d/J	.	.	.	.	.	.	.	.	.	.	.	.
=37	=37	=37	=37	=37	=37	=37	=37	=37	=37	=37	=37	=37	=37	=37	=37	=37	=37	=37	=37
8E\L	8e/L	.	8E\L	.	1r	.	8e/L	.	1r	.	2E\	swo-	1r	.	2e/	swo-	1r	.	.
8F\	8f/	.	8F\	.	.	.	8f/	.	.	.	.	.	.	.	.	.	.	.	.
8E\	8e/	.	8E\	.	.	.	8e/	.	.	.	.	.	.	.	.	.	.	.	.
8C#X\J	8c#X/J	.	8C#X\J	.	.	.	8c#X/J	.	.	.	.	.	.	.	.	.	.	.	.
8AA\L	8A/L	.	8AA\L	.	.	.	8A/L	.	.	.	4E\	-ią	.	.	4e/	-ią	.	.	.
8E\	8e/	.	8E\	.	.	.	8e/	.	.	.	.	.	.	.	.	.	.	.	.
8A\	8a/	.	8A\	.	.	.	8a/	.	.	.	4G\	ród	.	.	4g/	ród	.	.	.
8G\J	8g/J	.	8G\J	.	.	.	8g/J	.	.	.	.	.	.	.	.	.	.	.	.
!!LO:LB:g=original
=38	=38	=38	=38	=38	=38	=38	=38	=38	=38	=38	=38	=38	=38	=38	=38	=38	=38	=38	=38
8F\L	8f/L	.	8F\L	.	1r	.	8f/L	.	1r	.	2F\	lu-	1r	.	2f/	lu-	1r	.	.
8G\	8g/	.	8G\	.	.	.	8g/	.	.	.	.	.	.	.	.	.	.	.	.
8F\	8f/	.	8F\	.	.	.	8f/	.	.	.	.	.	.	.	.	.	.	.	.
8D\J	8d/J	.	8D\J	.	.	.	8d/J	.	.	.	.	.	.	.	.	.	.	.	.
8E\L	8e/L	.	8E\L	.	.	.	8e/L	.	.	.	4E\	-dzki	.	.	4e/	-dzki	.	.	.
8AA\	8A/	.	8AA\	.	.	.	8A/	.	.	.	.	.	.	.	.	.	.	.	.
8D\	8d/	.	8D\	.	.	.	8d/	.	.	.	4D\	wy-	.	.	4d/	wy-	.	.	.
8AA\J	8A/J	.	8AA\J	.	.	.	8A/J	.	.	.	.	.	.	.	.	.	.	.	.
=39	=39	=39	=39	=39	=39	=39	=39	=39	=39	=39	=39	=39	=39	=39	=39	=39	=39	=39	=39
8C#X\L	8c#X/L	.	8C#X\L	.	2r	.	8c#X/L	.	2r	.	2C#X/	-ba-	2r	.	2c#X/	-ba-	2r	.	.
8AA\	8A/	.	8AA\	.	.	.	8A/	.	.	.	.	.	.	.	.	.	.	.	.
8C#\	8c#/	.	8C#\	.	.	.	8c#/	.	.	.	.	.	.	.	.	.	.	.	.
8E\J	8e/J	.	8E\J	.	.	.	8f/J	.	.	.	.	.	.	.	.	.	.	.	.
4A\	4a/	.	4A\	.	4r	.	4a/	.	4r	.	4AA/	-wił	4r	.	4A/	-wił	4r	.	.
!	!	!	!	!	!	!LO:DY:b	!	!	!	!LO:DY:b	!	!	!	!	!	!	!	!	!
.	.	.	.	.	.	f	.	.	.	f	.	.	.	.	.	.	.	.	.
4A\ 4AA\	4a/ 4e/ 4c#X/	.	4A\	.	4c#X\	.	4e/	.	4a/	.	4A\	I	4c#X\	.	4e/	.	4a/	I	.
=40	=40	=40	=40	=40	=40	=40	=40	=40	=40	=40	=40	=40	=40	=40	=40	=40	=40	=40	=40
2G/ 2GG/	2a/ 2e/ 2c#X/	.	2G\	.	2c#X\	.	2e/	.	2b-/	.	2G\	Krwią	2c#X\	.	2e/	.	2b-/	Krwią	.
2F/ 2FF/	2a/ 2d/	.	2F\	.	2d\	.	2d/	.	(>2a/	.	2F\	do	2c#\	.	2d/	.	2a/	do	.
=41	=41	=41	=41	=41	=41	=41	=41	=41	=41	=41	=41	=41	=41	=41	=41	=41	=41	=41	=41
*	*^	*	*	*	*	*	*	*	*	*	*	*	*	*	*	*	*	*	*
2E/ 2EE/	4a/	2c#X\	.	2E\	.	2A/	.	2c#X/	.	4a/	.	2E\	Nie-	2A\	.	2c#X/	.	(4a/	Nie-	.
.	4g/	.	.	.	.	.	.	.	.	4g/	.	.	.	.	.	.	.	4g/	.	.
4D/ 4DD/	4f/	2d\	.	4D\	.	4A/	.	4d/	.	4f/)	.	4D\	-ba	4A\	.	4d/	.	4f/)	-ba	.
4G/ 4GG/	4e/	.	.	4G\	.	4B-X/	.	4d/	.	4e/	.	4G\	o-	4B-X\	.	4d/	.	4e/	o-	.
*	*v	*v	*	*	*	*	*	*	*	*	*	*	*	*	*	*	*	*	*	*
=42||	=42||	=42||	=42||	=42||	=42||	=42||	=42||	=42||	=42||	=42||	=42||	=42||	=42||	=42||	=42||	=42||	=42||	=42||	=42||
*k[bnf#c#]	*k[bnf#c#]	*	*k[bnf#c#]	*	*k[bnf#c#]	*	*k[bnf#c#]	*	*k[bnf#c#]	*	*k[bnf#c#]	*	*k[bnf#c#]	*	*k[bnf#c#]	*	*k[bnf#c#]	*	*
*	*^	*	*	*	*	*	*	*	*	*	*	*	*	*	*	*	*	*	*
2.A\ 2.AA\	2f#X/	2.d\	.	2.AA/	.	2A/	.	2d/	.	2f#X/	.	2A\	-zna-	2A\	.	2d/	.	2f#X/	-zna-	.
.	4e/	.	.	.	.	4A/	.	4d/	.	4e/	.	4A\	-czył	4A\	.	4d/	.	4e/	-czył	.
4A\ 4AA\	4a/ 4c#X/	4ryy	.	4AA/	.	4A/	.	4c#/	.	4a/	.	4AA/	nam	4A\	.	4c#/	.	4a/	nam	.
*	*v	*v	*	*	*	*	*	*	*	*	*	*	*	*	*	*	*	*	*	*
!!LO:LB:g=original
=43	=43	=43	=43	=43	=43	=43	=43	=43	=43	=43	=43	=43	=43	=43	=43	=43	=43	=43	=43
2.A\ 2.D\	2.f#X/ 2.d/	.	8D\L	.	8A/L	.	8d/L	.	8f#X/L	.	2D\	śla-	2A\	.	2d/	.	2f#/	śla-	.
.	.	.	8F#\	.	8F#/	.	8A/	.	8d/	.	.	.	.	.	.	.	.	.	.
.	.	.	8A\	.	8A/	.	8d/	.	8f#/	.	.	.	.	.	.	.	.	.	.
.	.	.	8d\J	.	8d/J	.	8f#/J	.	8a/J	.	.	.	.	.	.	.	.	.	.
.	.	.	4D\	.	4f#\	.	4d/	.	4dd\	.	4D\	-dy	4A\	.	4d/	.	4f#/	-dy	.
4d\ 4D\	4r	.	4d\	.	4r	.	4r	.	4r	.	4d\	A	4d\	.	4r	.	4r	.	.
=44	=44	=44	=44	=44	=44	=44	=44	=44	=44	=44	=44	=44	=44	=44	=44	=44	=44	=44	=44
2c#\ 2C#\	2r	.	2c#\	.	2r	.	1r	.	1r	.	2c#X\	po	2c#X\	.	1r	.	1r	.	.
2B\ 2BB\	4r	.	2B\	.	4r	.	.	.	.	.	(4Bn\	Bo-	(4Bn\	.	.	.	.	.	.
.	4dd/ 4d/	.	.	.	4d\	.	.	.	.	.	4B\)	.	4d\)	.	.	.	.	.	.
=45	=45	=45	=45	=45	=45	=45	=45	=45	=45	=45	=45	=45	=45	=45	=45	=45	=45	=45	=45
2A\ 2AA\	2cc#/ 2c#/	.	2A\	.	(2c#\	.	2r	.	2r	.	2A\	-że-	2c#\	.	2r	.	2r	.	.
4G\ 4GG\	4b/ 4B/	.	4G\	.	4B/)	.	4r	.	4r	.	4G\	-mu	4B\	.	4r	.	4r	.	.
4B\ 4G\	4dd/ 4d/	.	4G\	.	4B/	.	4d/	.	(4dd\	.	4G\	Na	4B\	.	4d/	.	4dd\	Na	.
=46	=46	=46	=46	=46	=46	=46	=46	=46	=46	=46	=46	=46	=46	=46	=46	=46	=46	=46	=46
*^	*	*	*	*	*	*	*	*	*	*	*	*	*	*	*	*	*	*	*
1A/	2F#\	2dd/ 2a/ 2d/	.	(4.F#\	.	2.A/	.	4.d/	.	4.dd\	.	(4.F#\	wie-	2A\	.	4.d/	.	(4.dd\	wie-	.
.	.	.	.	16G\LL	.	.	.	16c#/LL	.	16ee\LL	.	16G\LL	.	.	.	16c#/LL	.	16ee\LL	.	.
.	.	.	.	16F#\JJ	.	.	.	16d/JJ	.	16dd\JJ	.	16F#\JJ	.	.	.	16d/JJ	.	16dd\JJ	.	.
.	(>4E\	4cc#/ 4a/ 4g/ 4e/	.	4E\)	.	.	.	4g/	.	4cc#\)	.	4E\)	-ki	4A\	.	4g/	.	4cc#\)	-ki	.
.	4D\	4dd/ 4a/ 4d/	.	4D\	.	4A/	.	4f#/	.	4dd\	.	4D\	zo-	4A\	.	4f#/	.	4dd\	zo-	.
=47	=47	=47	=47	=47	=47	=47	=47	=47	=47	=47	=47	=47	=47	=47	=47	=47	=47	=47	=47	=47
2.A/)	2.C#\	2ee/ 2a/ 2g/	.	2C#/	.	2A/	.	2g/	.	2ee\	.	2C#/	-sta-	2A\	.	2g/	.	2ee\	-sta-	.
.	.	4a/ 4g/ 4e/	.	4C#/	.	4A/	.	4g/	.	4a/	.	4C#/	-wił	4A\	.	4g/	.	4a/	-wił	.
4A/	4AA\	4a/	.	4AA/	.	4A/	.	4a/	.	4a/	.	4AA/	na-	4A\	.	4a/	.	4a/	na-	.
*v	*v	*	*	*	*	*	*	*	*	*	*	*	*	*	*	*	*	*	*	*
=48	=48	=48	=48	=48	=48	=48	=48	=48	=48	=48	=48	=48	=48	=48	=48	=48	=48	=48	=48
*	*^	*	*	*	*	*	*	*	*	*	*	*	*	*	*	*	*	*	*
2G\	2cc#/ 2e/	1a\	.	2G^\	.	2e\	.	2a/	.	2cc#^\	.	2G^\	-u-	2e\	.	2a/	.	2cc#^\	-u-	.
2F#\	2dd/ 2d/	.	.	2F#^\	.	2d\	.	2a/	.	2dd^\	.	2F#^\	-ki	2d\	.	2a/	.	2dd^\	-ki	.
*	*v	*v	*	*	*	*	*	*	*	*	*	*	*	*	*	*	*	*	*	*
!!LO:LB:g=original
=49	=49	=49	=49	=49	=49	=49	=49	=49	=49	=49	=49	=49	=49	=49	=49	=49	=49	=49	=49
2.d\ 2.B-\ 2.G\	2ee/ 2e/	.	2G\	.	2B-X/	.	2d/	.	4.ee\	.	2G\	świę-	2B-X\	.	2d/	.	(4.ee\	świę-	.
.	.	.	.	.	.	.	.	.	8e/	.	.	.	.	.	.	.	8e/	.	.
.	4e/	.	4G\	.	4B-/	.	4d/	.	4e/	.	4G\	-te	4B-\	.	4d/	.	4e/)	-te	.
4d\ 4B\ 4G#X\	4e#X/	.	4G#X\	.	4Bn/	.	4d/	.	4e#X/	.	4G#X\	i	4Bn\	.	4d/	.	4e#X/	i	.
=50	=50	=50	=50	=50	=50	=50	=50	=50	=50	=50	=50	=50	=50	=50	=50	=50	=50	=50	=50
2.A\	4f#/ 4d/	.	4A\	.	(<4A/	.	(4d/	.	(4f#/	.	2.A\	świę-	(4A\	.	(4d/	.	(4f#/	świę-	<
!	!	!	!	!	!	!	!	!	!	!LO:HP:b	!	!	!	!	!	!	!	!	!
.	.	.	.	.	.	.	.	.	.	<	.	.	.	.	.	.	.	.	.
.	2a/ 2f#/ 2d/	<	2A\	.	2d\)	.	2f#/)	.	2a/)	.	.	.	2d\)	.	2f#/)	.	2a/)	.	.
8F#\L	8dd/L 8a/ 8d/	.	8F#\L	.	8d\L	.	8a/L	.	8dd\L	.	8F#\	-te	8d\	.	8a/	.	8dd\	-te	.
8D\J	8ff#/J 8dd/ 8a/	.	8D\J	.	8d\J	.	8a/J	.	8ff#\J	[	8D\	przy-	8d\	.	8a/	.	8ff#\	przy-	[
=51	=51	=51	=51	=51	=51	=51	=51	=51	=51	=51	=51	=51	=51	=51	=51	=51	=51	=51	=51
*^	*	*	*	*	*	*	*	*	*	*	*	*	*	*	*	*	*	*	*
!	!	!	!	!	!LO:DY:rj:a	!	!	!	!	!	!LO:DY:rj	!	!	!	!	!	!	!	!	!
4f#/ 4d/	1A\	2.aa\ 2.a\	[	2A\	f	(4d\	.	(4f#/	.	2.aa\	f	1AA/	-kła-	(4d\	.	(4f#/	.	(2.aa\	-kła-	f
8e/L 8c#/	.	.	.	.	.	8c#\L	.	8e/L	.	.	.	.	.	8c#\L	.	8e/L	.	.	.	.
8f#\J 8d\	.	.	.	.	.	8d\J	.	8f#/J	.	.	.	.	.	8d\J	.	8f#/J	.	.	.	.
2g/ 2e/	.	.	.	4AA/	.	2e\)	.	2g/	.	.	.	.	.	2e\	.	2g/)	.	.	.	.
.	.	4cc#/ 4a/	.	4A\	.	.	.	.	.	4cc#\	.	.	.	.	.	.	.	4cc#\	.	.
*v	*v	*	*	*	*	*	*	*	*	*	*	*	*	*	*	*	*	*	*	*
=52	=52	=52	=52	=52	=52	=52	=52	=52	=52	=52	=52	=52	=52	=52	=52	=52	=52	=52	=52
*	*^	*	*	*	*	*	*	*	*	*	*	*	*	*	*	*	*	*	*
4f#\ 4d\	4dd/	4a\	.	4d\	.	8d\L	.	8f#/L)	.	8dd/L	.	4D/	-dy.	4d\)	.	4f#/	.	4dd\)	-dy.	.
.	.	.	.	.	.	8f#\J	.	8a/J	.	8dd/J 8d/	.	.	.	.	.	.	.	.	.	.
[2.d\	2ee-X/	2b-X\ 2g\	.	2.d^\	.	2g^\	.	2b-X\	.	2ee-X/ 2e-X^/	.	4r	.	4r	.	4r	.	4r	.	.
.	.	.	.	.	.	.	.	.	.	.	.	2r	.	2r	.	2r	.	2r	.	.
.	8een/L	8bn\L 8g#X\	.	.	.	8g#X\L	.	8bn\L	.	8een/L 8en/	.	.	.	.	.	.	.	.	.	.
.	8ff#/J	8ccn\J 8a\	.	.	.	8a\J	.	8ccn\J	.	8ff#/J 8f#/	.	.	.	.	.	.	.	.	.	.
=53	=53	=53	=53	=53	=53	=53	=53	=53	=53	=53	=53	=53	=53	=53	=53	=53	=53	=53	=53	=53
*	*	*^	*	*	*	*	*	*	*	*	*	*	*	*	*	*	*	*	*	*
1d\_	4aa/	2b\	1dd/	.	[1d\	.	2b\	.	1dd\	.	4aa\ 4a\	.	1r	.	1r	.	1r	.	1r	.	.
.	2gg/	.	.	.	.	.	.	.	.	.	2gg\ 2g\	.	.	.	.	.	.	.	.	.	.
.	.	4b-X\	.	.	.	.	4b-X\	.	.	.	.	.	.	.	.	.	.	.	.	.	.
.	4ff#/	4a\	.	.	.	.	4a\	.	.	.	4ff#/ 4f#/	.	.	.	.	.	.	.	.	.	.
*	*	*v	*v	*	*	*	*	*	*	*	*	*	*	*	*	*	*	*	*	*	*
!!LO:PB:g=original
=54	=54	=54	=54	=54	=54	=54	=54	=54	=54	=54	=54	=54	=54	=54	=54	=54	=54	=54	=54	=54
1d\]	4.ff#/	1cc#\ 1a\ 1g\	.	1d\]	.	1a\ 1g\	.	1cc#\	.	(4.ff#/ 4.f#/	.	1ryy	.	1ryy	.	1ryy	.	1ryy	.	.
.	8ee/	.	.	.	.	.	.	.	.	8ee/ 8e/)	.	.	.	.	.	.	.	.	.	.
.	4.ff#/	.	.	.	.	.	.	.	.	(4.ff#/ 4.f#/	.	.	.	.	.	.	.	.	.	.
.	8ee/	.	.	.	.	.	.	.	.	8ee/ 8e/)	.	.	.	.	.	.	.	.	.	.
*	*v	*v	*	*	*	*	*	*	*	*	*	*	*	*	*	*	*	*	*	*
=55	=55	=55	=55	=55	=55	=55	=55	=55	=55	=55	=55	=55	=55	=55	=55	=55	=55	=55	=55
*^	*	*	*	*	*	*	*	*	*	*	*	*	*	*	*	*	*	*	*
!	!	!	!	!	!	!LO:TX:a:t=P:problem:mixedbeam	!	!LO:TX:a:t=P:problem:mixedbeam	!	!	!	!	!	!	!	!	!	!	!	!
8d\L	4ryy	8dd/L 8a/ 8f#/	.	8d\L	.	8a\L 8f#\	.	8dd\L	.	8dd/L 8d/	.	1ryy	.	1ryy	.	1ryy	.	1ryy	.	.
8F#\J 8D\	.	8d/J 8A/	.	8D\J	.	8F#/J	.	8A/J	.	8d/J	.	.	.	.	.	.	.	.	.	.
2G/	2.D\	2e-X/ 2B-X/	.	[2.D\	.	2G/	.	2B-X/	.	2e-X/	.	.	.	.	.	.	.	.	.	.
8G#X/L	.	8en/L 8Bn/	.	.	.	(8G#X/L	.	(8Bn/L	.	(8en/L	.	.	.	.	.	.	.	.	.	.
(<8A/J	.	8f#/J 8cn/	.	.	.	8A/J)	.	8cn/J)	.	8f#/J)	.	.	.	.	.	.	.	.	.	.
=56	=56	=56	=56	=56	=56	=56	=56	=56	=56	=56	=56	=56	=56	=56	=56	=56	=56	=56	=56	=56
*	*	*^	*	*	*	*	*	*	*	*	*	*	*	*	*	*	*	*	*	*
2B/	1D\)	4a/	1d\	.	1D\_	.	2B/	.	1d/	.	4a/	.	1ryy	.	1ryy	.	1ryy	.	1ryy	.	.
.	.	2g/	.	.	.	.	.	.	.	.	2g/	.	.	.	.	.	.	.	.	.	.
4B-X/	.	.	.	.	.	.	(4B-X/	.	.	.	.	.	.	.	.	.	.	.	.	.	.
4A/	.	4f#/	.	.	.	.	4A/)	.	.	.	4f#/	.	.	.	.	.	.	.	.	.	.
*v	*v	*	*	*	*	*	*	*	*	*	*	*	*	*	*	*	*	*	*	*	*
=57	=57	=57	=57	=57	=57	=57	=57	=57	=57	=57	=57	=57	=57	=57	=57	=57	=57	=57	=57	=57
1A\ 1G\ 1E\	4.f#/	1c#\	.	1D\]	.	1A/ 1G/	.	1c#/	.	4.f#/	.	1ryy	.	1ryy	.	1ryy	.	1ryy	.	.
.	8e/	.	.	.	.	.	.	.	.	8e/	.	.	.	.	.	.	.	.	.	.
.	4.f#/	.	.	.	.	.	.	.	.	4.f#/	.	.	.	.	.	.	.	.	.	.
.	8e/	.	.	.	.	.	.	.	.	8e/	.	.	.	.	.	.	.	.	.	.
*	*v	*v	*	*	*	*	*	*	*	*	*	*	*	*	*	*	*	*	*	*
=58	=58	=58	=58	=58	=58	=58	=58	=58	=58	=58	=58	=58	=58	=58	=58	=58	=58	=58	=58
4A\ 4F#\ 4D\	4d/	.	4D\	.	4A/ 4F#/	.	4d/	.	4d/	.	1ryy	.	1ryy	.	1ryy	.	1ryy	.	.
4r	4r	.	4r	.	4r	.	4r	.	4r	.	.	.	.	.	.	.	.	.	.
2G\ 2D\ 2BB-X\ 2GG\	2g/ 2d/ 2B-X/	.	2GG/	.	2d\	.	2g/ 2B-X/	.	(8gg\L	.	.	.	.	.	.	.	.	.	.
.	.	.	.	.	.	.	.	.	8dd\)	.	.	.	.	.	.	.	.	.	.
.	.	.	.	.	.	.	.	.	8b-X'\	.	.	.	.	.	.	.	.	.	.
.	.	.	.	.	.	.	.	.	8g'\J	.	.	.	.	.	.	.	.	.	.
!!LO:LB:g=original
=59	=59	=59	=59	=59	=59	=59	=59	=59	=59	=59	=59	=59	=59	=59	=59	=59	=59	=59	=59
4F#\ 4D\	4f#/ 4d/ 4A/	.	4D\	.	4d\	.	4f#/ 4A/	.	4f#/	.	1ryy	.	1ryy	.	1ryy	.	1ryy	.	.
4r	4r	.	4r	.	4r	.	4r	.	4r	.	.	.	.	.	.	.	.	.	.
2G\ 2D\ 2BB-X\ 2GG\	4.g/ 4.d/ 4.B-X/	.	2GG/	.	2d\	.	2g/ 2B-X/	.	8g'/L	.	.	.	.	.	.	.	.	.	.
.	.	.	.	.	.	.	.	.	8g'/	.	.	.	.	.	.	.	.	.	.
.	.	.	.	.	.	.	.	.	(8b-X/	.	.	.	.	.	.	.	.	.	.
.	8b-X/ 8g/ 8d/	.	.	.	.	.	.	.	8g/J)	.	.	.	.	.	.	.	.	.	.
=60	=60	=60	=60	=60	=60	=60	=60	=60	=60	=60	=60	=60	=60	=60	=60	=60	=60	=60	=60
1A\ 1F#\ 1D\;	1dd/ 1a/ 1f#/ 1d/;	.	1D\;	.	1d\;	.	1f#/ 1A/;	.	1dd/ 1f#/;	.	1ryy	.	1ryy	.	1ryy	.	1ryy	.	.
==	==	==	==	==	==	==	==	==	==	==	==	==	==	==	==	==	==	==	==
*-	*-	*-	*-	*-	*-	*-	*-	*-	*-	*-	*-	*-	*-	*-	*-	*-	*-	*-	*-
!!!system-decoration: {s1,s2,s3,s4}{(s5,s6,s7,s8)}{(s9,s10)}
!!!RDF**kern: > = above
!!!RDF**kern: < = below
!!!EED: Leszek Kubiak
!!!EST: 2021-04-28
!!!ENC: Berenika Jozajtis
!!!END: 2021-04-11
